X: 3
T: Miss Susan Cooper
R: reel
M: 4/4
L: 1/8
K: Dmaj
defd BcdB|BAFA DAFB|ABde fg^ga|gAfA egfe|\defd BcdB|BAFA DAFA|ABde fg^ga|gece d4:||\Bcde fBB2|def^g a2gf|eAA2 eAce|gAfA egfe|\defd BcdB|BAFA DAFB|ABde fg^ga|gece d4:||


Tune 1018	Setting 27025

